src/images/advantages/weight.svg

<svg width="50" height="50" viewBox="0 0 50 50" fill="none" xmlns="http://www.w3.org/2000/svg">
<path d="M22.9495 7.61529C18.4785 8.27834 14.7969 10.7607 13.4423 14.0112C13.0102 15.0381 12.8938 15.6688 12.8938 16.906C12.9021 17.8197 12.9354 18.1593 13.0766 18.6525C13.3675 19.6228 13.5753 20.1161 14.0074 20.8115L14.4063 21.4583L13.9576 22.0082C10.409 26.4231 10.0184 32.633 12.9769 37.525C14.0822 39.3605 15.8856 41.1637 17.6474 42.2148L18.171 42.5221L25.3346 42.4655L32.5066 42.4008L32.8473 42.2148C34.0357 41.5437 35.7144 40.0478 36.6535 38.8349C38.0663 36.9913 38.9888 34.8405 39.3794 32.5118C39.5123 31.6789 39.5123 29.2127 39.3711 28.4284C38.9472 26.0107 38.0414 23.9407 36.612 22.1052C36.3377 21.7575 36.1217 21.4664 36.1217 21.4422C36.1217 21.426 36.2712 21.1753 36.4458 20.8923C36.853 20.2455 37.2186 19.4126 37.4181 18.6849C37.6425 17.8763 37.6425 15.8548 37.4181 15.0462C36.6203 12.1757 34.2269 9.78231 30.8445 8.46431C29.8971 8.09236 28.2765 7.69615 27.2294 7.56678C26.2571 7.45358 23.8554 7.47783 22.9495 7.61529ZM28.0106 8.93329C32.4484 9.79848 35.6978 12.5153 36.2962 15.8629C36.4291 16.6149 36.346 17.8925 36.1217 18.604C35.8973 19.2994 35.4818 20.1161 34.9914 20.8115C34.792 21.0945 34.6258 21.4179 34.6258 21.523C34.6258 21.6281 34.8003 21.9031 35.0496 22.178C37.1272 24.4825 38.2242 27.3691 38.2242 30.4903C38.2159 34.04 36.853 37.1531 34.2269 39.595C33.7781 40.0155 33.1382 40.5411 32.7975 40.7675L32.1742 41.1879L25.3014 41.2122L18.4369 41.2445L17.905 40.9049C15.977 39.6516 14.2401 37.5816 13.2761 35.3823C12.0628 32.6007 11.9381 29.3744 12.9271 26.4797C13.4506 24.9757 14.1487 23.7467 15.2124 22.4529C15.6446 21.9354 15.844 21.6281 15.844 21.4826C15.844 21.3613 15.628 20.9651 15.3454 20.5527C14.3481 19.1053 13.9409 17.4963 14.1819 15.9761C14.4313 14.4398 15.1293 13.1784 16.4175 11.9251C18.0962 10.2998 20.4397 9.22438 23.1905 8.82009C24.3291 8.65029 26.8471 8.71497 28.0106 8.93329Z" fill="black"/>
<path d="M23.3233 10.3564C19.916 10.9143 17.2484 12.8064 16.3758 15.2888C16.1763 15.8467 16.1431 16.0651 16.1431 16.8656C16.1431 17.6661 16.1763 17.8844 16.3758 18.4423C16.5004 18.7981 16.7331 19.2913 16.891 19.542C17.3232 20.2374 17.5143 20.2616 18.3703 19.7441C19.6501 18.9598 21.1211 18.3857 22.6502 18.0704C23.6807 17.8601 25.6586 17.7793 26.7805 17.9086C28.534 18.1108 30.4371 18.7415 31.9579 19.639C32.3901 19.8897 32.8306 20.0999 32.9386 20.0999C33.5702 20.0999 34.3763 18.2806 34.3763 16.8656C34.3763 13.7201 31.3679 11.0275 27.1046 10.3564C26.1988 10.2109 24.1959 10.2109 23.3233 10.3564ZM27.437 11.6502C28.8664 11.9574 30.1795 12.5396 31.1685 13.3078C32.4981 14.3347 33.2128 15.7659 33.0965 17.1486C33.0549 17.6984 32.8472 18.4423 32.7225 18.5232C32.6893 18.5393 32.2239 18.3453 31.692 18.0865C30.5867 17.5529 29.3318 17.1243 28.0603 16.8494C27.2874 16.6877 26.9633 16.6634 25.2348 16.6715C23.5311 16.6715 23.1737 16.6958 22.4341 16.8494C21.1543 17.1243 20.157 17.4639 18.9271 18.0461C17.6888 18.6364 17.7553 18.6445 17.5309 17.9167C17.2401 16.9707 17.4229 15.7174 17.988 14.7713C18.2872 14.27 19.1099 13.4371 19.7083 13.0248C20.8468 12.2404 21.8441 11.8846 23.9882 11.4965C24.4286 11.4157 26.8719 11.5289 27.437 11.6502Z" fill="black"/>
<path d="M26.0827 22.0808C25.85 22.3719 25.85 22.6468 26.091 22.8813C26.2489 23.035 26.4068 23.0754 26.9802 23.1158C28.0938 23.1967 29.1576 23.5201 30.1133 24.07C30.7947 24.4743 31.8335 25.4526 32.2989 26.1561C32.9887 27.1669 33.4624 28.6142 33.4624 29.6816C33.4624 30.0535 33.4956 30.1667 33.6702 30.3284C33.9361 30.5953 34.2851 30.5953 34.5428 30.3284C34.7256 30.1425 34.7339 30.0939 34.684 29.3015C34.4513 25.388 31.1022 22.1213 27.0966 21.9029L26.2655 21.8544L26.0827 22.0808Z" fill="black"/>
</svg>

<svg width="50" height="50" fill="none"><path d="M22.95 7.615c-4.471.663-8.153 3.146-9.508 6.396-.432 1.027-.548 1.658-.548 2.895.008.914.041 1.253.183 1.747.29.97.498 1.463.93 2.159l.4.646-.45.55c-3.548 4.415-3.939 10.625-.98 15.517 1.105 1.836 2.909 3.639 4.67 4.69l.524.307 7.164-.056 7.172-.065.34-.186c1.189-.671 2.867-2.167 3.806-3.38a14.189 14.189 0 0 0 2.726-6.323c.133-.833.133-3.3-.008-4.084-.424-2.417-1.33-4.487-2.759-6.323-.274-.348-.49-.639-.49-.663 0-.016.15-.267.324-.55a8.75 8.75 0 0 0 .972-2.207c.224-.809.224-2.83 0-3.639-.798-2.87-3.191-5.264-6.573-6.582-.948-.372-2.569-.768-3.616-.897-.972-.113-3.374-.09-4.28.048Zm5.06 1.318c4.438.865 7.688 3.582 8.286 6.93.133.752.05 2.03-.174 2.741-.225.695-.64 1.512-1.13 2.207-.2.284-.366.607-.366.712 0 .105.174.38.424.655 2.077 2.305 3.174 5.191 3.174 8.312-.008 3.55-1.371 6.663-3.997 9.105-.449.42-1.089.946-1.43 1.172l-.623.42-6.873.025-6.864.032-.532-.34c-1.928-1.252-3.665-3.322-4.629-5.522-1.213-2.781-1.338-6.008-.349-8.902.524-1.504 1.222-2.733 2.285-4.027.433-.518.632-.825.632-.97 0-.122-.216-.518-.499-.93-.997-1.448-1.404-3.057-1.163-4.577.25-1.536.947-2.798 2.236-4.05C18.096 10.3 20.44 9.223 23.19 8.82c1.138-.17 3.656-.105 4.82.113Z" fill="#000"/><path d="M23.323 10.356c-3.407.558-6.075 2.45-6.947 4.933-.2.558-.233.776-.233 1.577 0 .8.033 1.018.233 1.576.124.356.357.85.515 1.1.432.695.623.72 1.48.202a13.44 13.44 0 0 1 4.28-1.674c1.03-.21 3.008-.29 4.13-.161 1.753.202 3.656.832 5.177 1.73.432.25.873.46.98.46.632 0 1.438-1.818 1.438-3.233 0-3.146-3.008-5.838-7.271-6.51-.906-.145-2.91-.145-3.782 0Zm4.114 1.294c1.43.307 2.742.89 3.732 1.658 1.33 1.027 2.044 2.458 1.927 3.84-.041.55-.249 1.294-.373 1.375-.034.016-.5-.178-1.031-.436a16.491 16.491 0 0 0-3.632-1.238c-.773-.161-1.097-.186-2.825-.177-1.704 0-2.061.024-2.8.177-1.28.275-2.278.615-3.508 1.197-1.238.59-1.172.599-1.396-.13-.29-.945-.108-2.199.457-3.145.3-.501 1.122-1.334 1.72-1.746 1.139-.785 2.136-1.14 4.28-1.529.44-.08 2.884.033 3.449.154ZM26.083 22.08c-.233.292-.233.567.008.801.158.154.316.194.89.235a7.321 7.321 0 0 1 3.132.954c.682.404 1.72 1.383 2.186 2.086.69 1.01 1.163 2.458 1.163 3.526 0 .372.034.485.208.646.266.267.615.267.873 0 .183-.186.19-.234.141-1.026-.233-3.914-3.582-7.18-7.587-7.4l-.832-.048-.182.227Z" fill="#000"/></svg>
